img/php.svg

<?xml version="1.0" encoding="UTF-8" standalone="no"?>
<!-- Generator: Adobe Illustrator 16.0.0, SVG Export Plug-In . SVG Version: 6.00 Build 0)  -->
<!DOCTYPE svg  PUBLIC '-//W3C//DTD SVG 1.1//EN'  'http://www.w3.org/Graphics/SVG/1.1/DTD/svg11.dtd'>
<svg id="Capa_1" style="enable-background:new 0 0 439.875 439.875" xmlns="http://www.w3.org/2000/svg" xml:space="preserve" height="439.88px" viewBox="0 0 439.875 439.875" width="439.88px" version="1.1" y="0px" x="0px" xmlns:xlink="http://www.w3.org/1999/xlink">
		<path d="m114.75 172.12h-38.25v38.25h38.25c11.475 0 19.125-7.65 19.125-19.125s-7.66-19.12-19.13-19.12z"/>
		<path d="m382.5 95.625h-325.12c-32.518 0-57.38 24.865-57.38 57.375v133.88c0 32.513 24.862 57.375 57.375 57.375h325.12c32.513 0 57.375-24.862 57.375-57.375v-133.88c0-32.51-24.87-57.375-57.38-57.375zm-267.75 133.88h-38.25v57.375h-19.125v-133.88h57.375c21.038 0 38.25 17.212 38.25 38.25 0 21.04-17.21 38.25-38.25 38.25zm153 57.38h-19.125v-57.38h-57.37v57.375h-19.125v-133.88h19.125v57.375h57.375v-57.38h19.125v133.88zm76.5-57.38h-38.25v57.375h-19.125v-133.88h57.375c21.037 0 38.25 17.212 38.25 38.25-0.01 21.04-17.22 38.25-38.26 38.25z"/>
		<path d="m344.25 172.12h-38.25v38.25h38.25c11.475 0 19.125-7.65 19.125-19.125s-7.66-19.12-19.13-19.12z"/>
</svg>

<?xml version="1.0" encoding="iso-8859-1"?>
<!-- Generator: Adobe Illustrator 16.0.0, SVG Export Plug-In . SVG Version: 6.00 Build 0)  -->
<!DOCTYPE svg PUBLIC "-//W3C//DTD SVG 1.1//EN" "http://www.w3.org/Graphics/SVG/1.1/DTD/svg11.dtd">
<svg version="1.1" id="Capa_1" xmlns="http://www.w3.org/2000/svg" xmlns:xlink="http://www.w3.org/1999/xlink" x="0px" y="0px"
	 width="439.875px" height="439.875px" viewBox="0 0 439.875 439.875" style="enable-background:new 0 0 439.875 439.875;"
	 xml:space="preserve">
<g>
	<g>
		<path d="M114.75,172.125H76.5v38.25h38.25c11.475,0,19.125-7.65,19.125-19.125S126.225,172.125,114.75,172.125z"/>
		<path d="M382.5,95.625H57.375C24.862,95.625,0,120.487,0,153v133.875c0,32.513,24.862,57.375,57.375,57.375H382.5
			c32.513,0,57.375-24.862,57.375-57.375V153C439.875,120.487,415.013,95.625,382.5,95.625z M114.75,229.5H76.5v57.375H57.375
			V191.25V153h57.375c21.038,0,38.25,17.212,38.25,38.25C153,212.287,135.788,229.5,114.75,229.5z M267.75,286.875h-19.125V229.5
			H191.25v57.375h-19.125V153h19.125v57.375h57.375V153h19.125V286.875z M344.25,229.5H306v57.375h-19.125V191.25V153h57.375
			c21.037,0,38.25,17.212,38.25,38.25C382.5,212.287,365.287,229.5,344.25,229.5z"/>
		<path d="M344.25,172.125H306v38.25h38.25c11.475,0,19.125-7.65,19.125-19.125S355.725,172.125,344.25,172.125z"/>
	</g>
</g>
<g>
</g>
<g>
</g>
<g>
</g>
<g>
</g>
<g>
</g>
<g>
</g>
<g>
</g>
<g>
</g>
<g>
</g>
<g>
</g>
<g>
</g>
<g>
</g>
<g>
</g>
<g>
</g>
<g>
</g>
</svg>
